src/icons/hds/some/twitch.svg

<svg xmlns="http://www.w3.org/2000/svg" width="24" height="24" viewBox="0 0 24 24">
  <g fill="none" fill-rule="evenodd">
    <rect width="24" height="24"/>
    <path fill="currentColor" d="M19.0714286,3 C20.0854592,3 20.9172741,3.7835277 20.9941951,4.77790504 L21,4.92857143 L21,19.0714286 C21,20.0854592 20.2164723,20.9172741 19.222095,20.9941951 L19.0714286,21 L4.92857143,21 C3.91454082,21 3.08272595,20.2164723 3.00580487,19.222095 L3,19.0714286 L3,4.92857143 C3,3.91454082 3.7835277,3.08272595 4.77790504,3.00580487 L4.92857143,3 L19.0714286,3 Z M19,5 L8.70833333,5 L6,7.70833333 L6,17.4583333 L9.25,17.4583333 L9.25,20.1666667 L11.9583333,17.4583333 L14.125,17.4583333 L19,12.5833333 L19,5 Z M17.9166667,6.08333333 L17.9166667,12.0416667 L15.75,14.2083333 L13.5833333,14.2083333 L11.6875,16.1041667 L11.6875,14.2083333 L9.25,14.2083333 L9.25,6.08333333 L17.9166667,6.08333333 Z M16.2916667,7.97916667 L15.2083333,7.97916667 L15.2083333,11.2291667 L16.2916667,11.2291667 L16.2916667,7.97916667 Z M13.3125,7.97916667 L12.2291667,7.97916667 L12.2291667,11.2291667 L13.3125,11.2291667 L13.3125,7.97916667 Z"/>
  </g>
</svg>

<svg viewBox="0 0 24 24" role="img" xmlns="http://www.w3.org/2000/svg"><g fill="none" fill-rule="evenodd"><path d="M0 0h24v24H0z"/><path d="M19.071 3a1.93 1.93 0 011.923 1.778l.006.15v14.143a1.93 1.93 0 01-1.778 1.923l-.15.006H4.928a1.93 1.93 0 01-1.923-1.778L3 19.072V4.928a1.93 1.93 0 011.778-1.923L4.928 3h14.143zM19 5H8.708L6 7.708v9.75h3.25v2.709l2.708-2.709h2.167L19 12.583V5zm-1.083 1.083v5.959l-2.167 2.166h-2.167l-1.896 1.896v-1.896H9.25V6.083h8.667zM16.292 7.98h-1.084v3.25h1.084V7.98zm-2.98 0H12.23v3.25h1.084V7.98z" fill="currentColor"/></g></svg>
